brandFactory_export/2.Regular/Exportar_2Regular.svg

<?xml version="1.0" encoding="UTF-8"?>
<svg width="24px" height="24px" viewBox="0 0 24 24" version="1.1" xmlns="http://www.w3.org/2000/svg" xmlns:xlink="http://www.w3.org/1999/xlink">
    <title>2.Regular/Exportar_2Regular</title>
    <g id="Symbols" stroke="none" stroke-width="1" fill="none" fill-rule="evenodd">
        <g id="2.Regular/Exportar_2Regular" fill="#5CB615" fill-rule="nonzero">
            <path d="M11.1663866,17.4352941 L4.30252101,10.5613445 C3.90588235,10.1647059 3.9092437,9.52605042 4.30252101,9.12941176 C4.69579832,8.73277311 5.33781513,8.73613445 5.73445378,9.12941176 L10.8705882,14.2722689 L10.8705882,1.01176471 C10.8705882,0.453781513 11.3243697,0 11.8857143,0 C12.4436975,0 12.897479,0.453781513 12.897479,1.01176471 L12.897479,14.2722689 L17.9462185,9.21680672 C18.3361345,8.81344538 18.9747899,8.80336134 19.3781513,9.18991597 C19.7815126,9.57983193 19.7915966,10.2184874 19.405042,10.6218487 C19.3983193,10.6319328 19.3882353,10.6386555 19.3781513,10.6487395 L12.6016807,17.4352941 C12.410084,17.6235294 12.1512605,17.7277311 11.8857143,17.7310924 C11.6134454,17.7310924 11.3579832,17.6235294 11.1663866,17.4352941 Z M22.6117647,16.6957983 C23.1697479,16.6957983 23.6235294,17.1495798 23.6235294,17.707563 L23.6235294,22.6117647 C23.6235294,23.1697479 23.1697479,23.6235294 22.6117647,23.6235294 L1.01176471,23.6235294 C0.453781513,23.6235294 0,23.1697479 0,22.6117647 L0,17.707563 C0.0201680672,17.1495798 0.490756303,16.712605 1.05210084,16.7327731 C1.57983193,16.7529412 2.00672269,17.1764706 2.02689076,17.707563 L2.02689076,21.6 L21.6033613,21.6 L21.6033613,17.707563 C21.6,17.1462185 22.0537815,16.6957983 22.6117647,16.6957983 L22.6117647,16.6957983 Z" id="Exportar_2Regular"></path>
        </g>
    </g>
</svg>

<svg width="24" height="24" viewBox="0 0 24 24" xmlns="http://www.w3.org/2000/svg"><path d="M11.166 17.435l-6.863-6.874A1.013 1.013 0 015.734 9.13l5.137 5.143V1.012a1.014 1.014 0 012.026 0v13.26l5.05-5.055a1.014 1.014 0 011.458 1.405c-.007.01-.017.017-.027.027l-6.776 6.786c-.192.189-.45.293-.716.296-.273 0-.528-.107-.72-.296zm11.446-.74c.558 0 1.012.455 1.012 1.013v4.904c0 .558-.454 1.012-1.012 1.012h-21.6A1.013 1.013 0 010 22.612v-4.904a1.014 1.014 0 012.027 0V21.6h19.576v-3.892a1.006 1.006 0 011.009-1.012z" fill="#5CB615" fill-rule="nonzero"/></svg>
